public/overdose.svg

<svg xmlns="http://www.w3.org/2000/svg" viewBox="0 0 512 512" style="height: 512px; width: 512px;"><path d="M0 0h512v512H0z" fill="#000" fill-opacity="1"></path><g class="" transform="translate(0,0)" style=""><path d="M321.28 25.25c-5.283-.02-10.664.664-16 2.094-32.517 8.713-52.123 42.41-43.25 74.937 25.442 93.258 17.27 64.235 41.783 155.97 8.69 32.53 42.42 51.963 74.937 43.25 32.52-8.713 52.114-42.44 43.22-74.97-23.16-84.706-19.757-73.42-38.658-144.186h.032l-3.156-11.75c-7.08-26.42-30.626-44.21-56.657-45.28-.75-.032-1.494-.06-2.25-.064zm-.81 18.688c18.96-.337 36.327 12.095 41.592 31.218l.063.28c15.085 56.296 18.418 69.392 23.906 90-16.61 17.467-61.828 30.824-82 20.783-5.28-20-8.876-33.524-23.967-88.845-6.186-22.672 7.31-45.904 30.062-52 2.844-.762 5.677-1.202 8.5-1.375.615-.038 1.232-.052 1.844-.063zm-141.25 91.03c-13.855 0-27.704 5.274-38.22 15.782h-.03c-3.675 3.674-3.08 3.075-6.19 6.188l-9.75 9.75h.064c-31.984 32.104-33.768 34.17-82.656 82.562-21.185 20.97-21.068 55.495-.032 76.53 21.036 21.037 55.474 21.057 76.5 0 57.914-57.996 39.236-39.802 98.5-98.53 21.167-20.977 21.067-55.495.03-76.53-10.516-10.52-24.356-15.75-38.217-15.75zm0 18.563c9.04 0 18.087 3.465 25.03 10.407 13.886 13.886 13.943 36.244.03 50.032-35.797 35.473-44.024 43.716-57.03 56.81-18.86-2.615-44.693-29.792-50.313-49.374 13.315-13.35 21.23-21.447 57.25-57.47 6.943-6.942 15.99-10.405 25.032-10.405zM427.905 319c-5.457-.02-10.986.675-16.5 2.156-95.318 25.614-64.922 17.872-162.094 43.438-33.698 8.866-53.754 43.83-44.75 77.437 9.005 33.61 43.8 53.724 77.407 44.72 97.095-26.02 66.704-18.39 162.124-43.438 33.71-8.848 53.754-43.828 44.75-77.437-7.316-27.308-31.69-45.715-58.594-46.813-.776-.03-1.564-.06-2.344-.062zm-95.094 42.78c-12.75 21.474-1.198 70.14 19.657 86.533-15.047 4.102-32.154 8.81-75.314 20.375-23.84 6.387-48.144-7.63-54.53-31.47-6.39-23.84 7.615-48.263 31.436-54.53 46.026-12.11 63.028-16.65 78.75-20.907z" fill="#fff" fill-opacity="1"></path></g></svg>

<?xml version="1.0" encoding="UTF-8" standalone="no"?>
<!DOCTYPE svg PUBLIC "-//W3C//DTD SVG 1.1//EN" "http://www.w3.org/Graphics/SVG/1.1/DTD/svg11.dtd">
<svg width="100%" height="100%" viewBox="0 0 512 512" version="1.1" xmlns="http://www.w3.org/2000/svg" xmlns:xlink="http://www.w3.org/1999/xlink" xml:space="preserve" xmlns:serif="http://www.serif.com/" style="fill-rule:evenodd;clip-rule:evenodd;stroke-linejoin:round;stroke-miterlimit:2;">
    <g>
        <path d="M321.28,25.25C315.997,25.23 310.616,25.914 305.28,27.344C272.763,36.057 253.157,69.754 262.03,102.281C287.472,195.539 279.3,166.516 303.813,258.251C312.503,290.781 346.233,310.214 378.75,301.501C411.27,292.788 430.864,259.061 421.97,226.531C398.81,141.825 402.213,153.111 383.312,82.345L383.344,82.345L380.188,70.595C373.108,44.175 349.562,26.385 323.531,25.315C322.781,25.283 322.037,25.255 321.281,25.251L321.28,25.25ZM320.47,43.938C339.43,43.601 356.797,56.033 362.062,75.156L362.125,75.436C377.21,131.732 380.543,144.828 386.031,165.436C369.421,182.903 324.203,196.26 304.031,186.219C298.751,166.219 295.155,152.695 280.064,97.374C273.878,74.702 287.374,51.47 310.126,45.374C312.97,44.612 315.803,44.172 318.626,43.999C319.241,43.961 319.858,43.947 320.47,43.936L320.47,43.938ZM179.22,134.968C165.365,134.968 151.516,140.242 141,150.75L140.97,150.75C137.295,154.424 137.89,153.825 134.78,156.938L125.03,166.688L125.094,166.688C93.11,198.792 91.326,200.858 42.438,249.25C21.253,270.22 21.37,304.745 42.406,325.78C63.442,346.817 97.88,346.837 118.906,325.78C176.82,267.784 158.142,285.978 217.406,227.25C238.573,206.273 238.473,171.755 217.436,150.72C206.92,140.2 193.08,134.97 179.219,134.97L179.22,134.968ZM179.22,153.531C188.26,153.531 197.307,156.996 204.25,163.938C218.136,177.824 218.193,200.182 204.28,213.97C168.483,249.443 160.256,257.686 147.25,270.78C128.39,268.165 102.557,240.988 96.937,221.406C110.252,208.056 118.167,199.959 154.187,163.936C161.13,156.994 170.177,153.531 179.219,153.531L179.22,153.531ZM427.905,319C422.448,318.98 416.919,319.675 411.405,321.156C316.087,346.77 346.483,339.028 249.311,364.594C215.613,373.46 195.557,408.424 204.561,442.031C213.566,475.641 248.361,495.755 281.968,486.751C379.063,460.731 348.672,468.361 444.092,443.313C477.802,434.465 497.846,399.485 488.842,365.876C481.526,338.568 457.152,320.161 430.248,319.063C429.472,319.033 428.684,319.003 427.904,319.001L427.905,319ZM332.811,361.78C320.061,383.254 331.613,431.92 352.468,448.313C337.421,452.415 320.314,457.123 277.154,468.688C253.314,475.075 229.01,461.058 222.624,437.218C216.234,413.378 230.239,388.955 254.06,382.688C300.086,370.578 317.088,366.038 332.81,361.781L332.811,361.78Z" style="fill:white;fill-rule:nonzero;"/>
    </g>
</svg>
